!!!COM:	Compere, Loyset
!!!CDT:	~1445///-1518/08/16
!!!OTL:	Tout mal me vient Dieu mercy et fortune
!!!AGN:	Song; Chanson
!!!SCT:	Com3041
!!!SCA:	Com3041
!!!voices:	3
**kern	**kern	**kern
*staff3	*staff2	*staff1
*Ivox	*Ivox	*Ivox
*I"Contratenor	*I"Tenor	*I"Superius
*I'Ct	*I'T	*I'S
*clefF4	*clefGv2	*clefG2
*k[]	*k[]	*k[]
*M2/1	*M2/1	*M2/1
*met(C|)	*met(C|)	*met(C|)
=1-	=1-	=1-
1E	1E	0r
2.G	1E	.
4A	.	.
=2	=2	=2
2B	1E	1e
2.c	.	.
.	[1A	1e
4d	.	.
2e	.	.
=3	=3	=3
2A	1A]	1e
2.c	.	.
.	1A	[1a
4B	.	.
[2A	.	.
=4	=4	=4
4A]	0c	1a]
4G	.	.
4F	.	.
4E	.	.
1F	.	1a
=5	=5	=5
1E	0e	2g
.	.	4a
.	.	4b
1C	.	1cc
=6	=6	=6
1G	1d	1b
2A	2c	2a
[2G	[2d	[2b
=7	=7	=7
4G]	4d]	4b]
4A	4c	4a
2F	2A	1a
1E	1B	.
.	.	2g#i
=8	=8	=8
2r	0A	1a
2.e	.	.
.	.	1r
4d	.	.
4e	.	.
4c	.	.
=9	=9	=9
2d	0r	1a
2.c	.	.
.	.	2a
4B	.	.
4c	.	[2cc
4A	.	.
=10	=10	=10
1e	1A	2cc]
.	.	2b
2r	2A	1a
[2e	[2c	.
=11	=11	=11
2e]	2c]	1g
2d	2B	.
2e	1A	1cc
2c	.	.
=12	=12	=12
2d	1G	1b
2G	.	.
2A	[1c	[1a
[2F	.	.
=13	=13	=13
2F]	1c]	2a]
4E	.	4g
4D	.	4f
1C	1c	[1e
=14	=14	=14
1C	1c	2e]
.	.	4d
.	.	4c
2G	1d	1B
4A	.	.
4B	.	.
=15	=15	=15
2.c	2.e	2.A
4B	4d	4B
2A	2c	2c
[2G	[2B	[2d
=16	=16	=16
4G]	4B]	4d]
4A	4A	4c
2F	1A	2A
1E	.	1B
.	2G#i	.
=17	=17	=17
2r	0A	1A
2.e	.	.
.	.	1r
4d	.	.
4c	.	.
4B	.	.
=18	=18	=18
2A	1r	1e
1c	.	.
.	1e	2.g
4B	.	.
4A	.	4a
=19	=19	=19
2G	0e	2b
1A	.	1cc
2G	.	2b
=20	=20	=20
2F	1f	2a
4E	.	4g
4D	.	4f
[1C	[1g	[1e
=21	=21	=21
0C_	1g]	2e]
.	.	2f
.	[1c	[1g
=22	=22	=22
1C]	2c]	1g]
.	2B	.
1r	2A	[1c
.	4G	.
.	4F	.
=23	=23	=23
1C	2.E	2c]
.	.	4B
.	4F	4A
1G	4G	1B
.	4A	.
.	2B	.
=24	=24	=24
2F	2c	2A
2G	4B	1e
.	4A	.
2E	2G	.
2A	[2c	4d
.	.	4c
=25	=25	=25
1G	2c]	1d
.	2B	.
1C	1c	1c
=26	=26	=26
2r	2G	1.e
1C	4A	.
.	4B	.
.	2c	.
[2D	[2B	[2d
=27	=27	=27
2D]	4B]	4d]
.	4A	4c
2F	1A	2A
1E	.	1B
.	2G#i	.
=28	=28	=28
2r	1A	0A
2.D	.	.
.	1r	.
4E	.	.
4F	.	.
4G	.	.
=29	=29	=29
4A	1.A	1r
4B	.	.
2.c	.	.
.	.	[1e
4d	.	.
[2e	[2c	.
=30	=30	=30
4e]	4c]	1e]
4d	4B	.
4c	4A	.
4B	4G	.
1c	1A	1f
=31	=31	=31
1.d	1.G	0g
[2e	[2c	.
=32	=32	=32
1e]	1c]	1e
2.A	[1e	1c
4B	.	.
=33	=33	=33
2c	2e]	2g
2F	1d	2a
1G	.	1b
.	4c	.
.	4B	.
=34	=34	=34
1F	1A	1cc
2G	1d	2b
2D	.	[2a
=35	=35	=35
1F	2c	4a]
.	.	4g
.	4A	2f
.	4B	.
2C	2c	2e
[2G	2B	2d
=36	=36	=36
4G]	1G	4e
4F	.	4d
2E	.	1g
1D	1A	.
.	.	2f#i
=37	=37	=37
1r	1G	0g
1G	1r	.
=38	=38	=38
1E	1G	1r
1C	[1c	1g
=39	=39	=39
0F	1c]	0a
.	1d	.
=40	=40	=40
1E	1.e	2g
.	.	4a
.	.	4b
1A	.	1cc
.	4d	.
.	4c	.
=41	=41	=41
2G	1d	2b
2F	.	1a
1A	2c	.
.	[2A	2g
=42	=42	=42
2c	4A]	0e
.	4B	.
2.A	2.c	.
4G	4B	.
2E	4A	.
.	4G	.
=43	=43	=43
1D	1A	1f
2r	2G	1g
[2C	[2c	.
=44	=44	=44
1C]	2c]	2e
.	4B	2c
.	4A	.
1G	1B	1d
=45	=45	=45
[0C	1c	2c
.	.	4B
.	.	4A
.	2r	1G
.	[2e	.
=46	=46	=46
1C]	1.e]	2g
.	.	4a
.	.	4b
2r	.	2cc
[2G	[2d	[2b
=47	=47	=47
2G]	2d]	2b]
2A	2c	1a
1E	1B	.
.	.	2g#i
=48	=48	=48
0el	0Al	0al
==	==	==
*-	*-	*-
!!!RDF**kern: l=long note in original notation
!!!RDF**kern: i=editorial accidental
!!!ENC:	Megan K. Eagen 2013/11/30
!!!END:	2013/11/30/
!!!EED:	Jesse Rodin
!!!EEV:	2014/02/23/
!!!ONB:	Translated from MusicXML and edited on 2014/02/23/ by Craig Sapp
!!muse2ps: C^@{COM}^i2I150v95,95,150Q16
